Flat-Remix-Dark/apps/scalable/gnome-freecell.svg

<svg xmlns="http://www.w3.org/2000/svg" width="384pt" height="384pt" version="1.1" viewBox="0 0 384 384">
 <defs>
  <linearGradient id="linear2" x1="69.087" x2="69.087" y1="60.327" y2="36.596" gradientTransform="translate(-6.101694,-0.813559)" gradientUnits="userSpaceOnUse">
   <stop offset="0" style="stop-color:rgb(83.137255%,0%,0%)"/>
   <stop offset="1" style="stop-color:rgb(83.137255%,7.843137%,0%)"/>
  </linearGradient>
 </defs>
 <g transform="matrix(0.87118765,0,0,0.87118765,24.731971,24.731971)">
  <path style="fill:#ffffff;stroke:#d40a00;stroke-width:11.52606201" d="M 85.078069,34.618469 247.21193,9.9224217 c 12.79,-1.9481585 24.816,7.3271723 26.85592,20.7195843 l 44.31936,290.964354 c 2.03992,13.3924 -6.67916,25.8276 -19.46916,27.77576 L 136.78419,374.07816 C 123.99421,376.02632 111.97206,366.7504 109.93215,353.358 L 65.612785,62.393647 C 63.572868,49.001236 72.288093,36.566623 85.078069,34.618469 Z m 0,0"/>
  <path style="fill:#ffffff;stroke:#d40a00;stroke-width:11.52606201" d="m 116.32302,17.431279 163.89443,5.991495 c 12.92888,0.472641 23.01291,11.829078 22.51801,25.366915 l -10.7523,294.123871 c -0.4949,13.53783 -11.38122,24.12766 -24.3101,23.65502 l -163.89444,-5.9915 C 90.849767,360.10444 80.769634,348.74814 81.264537,335.21031 L 92.016834,41.086441 C 92.511737,27.548604 103.39416,16.958638 116.32302,17.431279 Z m 0,0"/>
  <g transform="rotate(15,218.16749,12.039769)">
   <path d="M 34.680398,4.779883 H 76.67997 c 3.314229,0 6.000225,2.686158 6.000225,6.000138 v 71.999747 c 0,3.313979 -2.685996,6.000138 -6.000225,6.000138 H 34.680398 c -3.314229,0 -6.000225,-2.686159 -6.000225,-6.000138 V 10.780021 c 0,-3.31398 2.685996,-6.000138 6.000225,-6.000138 z m 0,0" transform="matrix(3.904802,0,0,4.087797,22.048677,1.413936)" style="fill:#ffffff;stroke:#d40a00;stroke-width:2.88493991"/>
   <path d="m 50.898411,35.186699 c -3.314229,0 -6.000225,2.686158 -6.000225,6.000138 0,0.206407 0.003,0.40708 0.02401,0.608709 0.517192,8.887926 11.976441,17.39075 11.976441,17.39075 0,0 11.444243,-8.857347 11.97644,-17.39075 0.02001,-0.201629 0.02301,-0.402302 0.02301,-0.608709 0,-3.31398 -2.685996,-6.000138 -6.000225,-6.000138 -3.313228,0 -5.999224,2.686158 -5.999224,6.000138 0,-3.31398 -2.686997,-6.000138 -6.000225,-6.000138 z m 0,0" transform="matrix(3.904802,0,0,4.087797,22.048677,1.413936)" style="fill:url(#linear2);stroke:#d40a00;stroke-width:2.88493991"/>
   <path d="m 162.44531,70.007812 v 1.28125 h -10.13672 v -1.28125 l 3.49219,-0.652343 10.50391,-30.765625 h 4.36718 l 10.91797,30.765625 3.91016,0.652343 v 1.28125 h -13.03516 v -1.28125 l 4.13672,-0.652343 -3.05469,-9.359375 h -12.13671 l -3.10157,9.359375 4.13672,0.652343 m 4.94141,-27.9375 -5.28906,15.746094 h 10.73437 l -5.44531,-15.746094" style="fill:#d40000"/>
   <path d="m 162.07031,79.464844 c -4.3125,0 -7.80859,3.660156 -7.80859,8.175781 0,0.285156 0.004,0.554687 0.0312,0.832031 0.67187,12.109374 15.58594,23.695314 15.58594,23.695314 0,0 14.89843,-12.07031 15.58984,-23.695314 0.0273,-0.277344 0.0312,-0.546875 0.0312,-0.832031 0,-4.515625 -3.49609,-8.175781 -7.80859,-8.175781 -4.3125,0 -7.8086,3.660156 -7.8086,8.175781 0,-4.515625 -3.49609,-8.175781 -7.8125,-8.175781 z m 0,0" style="fill:#d40000"/>
   <path d="m 301.60547,315.26953 v -1.28125 h -10.13672 v 1.28125 l 3.49609,0.65625 10.50391,30.76563 h 4.36719 l 10.91797,-30.76563 3.90625,-0.65625 v -1.28125 h -13.03125 v 1.28125 l 4.13671,0.65625 -3.05859,9.35938 h -12.13672 l -3.10156,-9.35938 4.13672,-0.65625 m 4.9414,27.9375 -5.28515,-15.74609 h 10.73437 l -5.44922,15.74609" style="fill:#c20000"/>
   <path d="m 301.23047,305.8125 c -4.3125,0 -7.8086,-3.66016 -7.8086,-8.17578 0,-0.28125 0.004,-0.55469 0.0312,-0.82813 0.67188,-12.11328 15.58985,-23.69922 15.58985,-23.69922 0,0 14.89453,12.07032 15.58594,23.69922 0.0273,0.27344 0.0312,0.54688 0.0312,0.82813 0,4.51562 -3.4961,8.17578 -7.8086,8.17578 -4.3125,0 -7.8125,-3.66016 -7.8125,-8.17578 0,4.51562 -3.49609,8.17578 -7.80859,8.17578 z m 0,0" style="fill:#c20000"/>
  </g>
 </g>
</svg>

<svg xmlns="http://www.w3.org/2000/svg" width="384pt" height="384pt" version="1.1" viewBox="0 0 384 384">
 <defs>
  <linearGradient id="linear0" x1="69.087" x2="69.087" y1="60.327" y2="36.596" gradientTransform="matrix(1,0,0,1,-6.101694,-0.813559)" gradientUnits="userSpaceOnUse">
   <stop offset="0" style="stop-color:rgb(83.137255%,0%,0%)"/>
   <stop offset="1" style="stop-color:rgb(83.137255%,7.843137%,0%)"/>
  </linearGradient>
  <linearGradient id="linear1" x1="69.087" x2="69.087" y1="60.327" y2="36.596" gradientTransform="matrix(1,0,0,1,-6.101694,-0.813559)" gradientUnits="userSpaceOnUse">
   <stop offset="0" style="stop-color:rgb(83.137255%,0%,0%)"/>
   <stop offset="1" style="stop-color:rgb(83.137255%,7.843137%,0%)"/>
  </linearGradient>
  <linearGradient id="linear2" x1="69.087" x2="69.087" y1="60.327" y2="36.596" gradientTransform="matrix(1,0,0,1,-6.101694,-0.813559)" gradientUnits="userSpaceOnUse">
   <stop offset="0" style="stop-color:rgb(83.137255%,0%,0%)"/>
   <stop offset="1" style="stop-color:rgb(83.137255%,7.843137%,0%)"/>
  </linearGradient>
 </defs>
 <g>
  <path style="fill:rgb(100%,100%,100%);stroke-width:2.88494;stroke:rgb(83.137255%,4.705882%,0%)" d="M 34.680129 4.779581 L 76.679702 4.779581 C 79.993931 4.779581 82.679927 7.466695 82.679927 10.779719 L 82.679927 82.780421 C 82.679927 86.093445 79.993931 88.779603 76.679702 88.779603 L 34.680129 88.779603 C 31.3659 88.779603 28.679904 86.093445 28.679904 82.780421 L 28.679904 10.779719 C 28.679904 7.466695 31.3659 4.779581 34.680129 4.779581 Z M 34.680129 4.779581" transform="matrix(3.904802,0,0,4.087797,-73.254962,-0.24889)"/>
  <path style="fill:url(#linear0);stroke-width:2.88494;stroke:rgb(83.137255%,4.705882%,0%)" d="M 50.898142 35.186396 C 47.584914 35.186396 44.897918 37.872555 44.897918 41.186534 C 44.897918 41.393897 44.900919 41.594571 44.921927 41.7962 C 45.439118 50.68317 56.898367 59.185993 56.898367 59.185993 C 56.898367 59.185993 68.343611 50.328646 68.874808 41.7962 C 68.894815 41.594571 68.897816 41.393897 68.897816 41.186534 C 68.897816 37.872555 66.21182 35.186396 62.898592 35.186396 C 59.584363 35.186396 56.898367 37.872555 56.898367 41.186534 C 56.898367 37.872555 54.212371 35.186396 50.898142 35.186396 Z M 50.898142 35.186396" transform="matrix(3.904802,0,0,4.087797,-73.254962,-0.24889)"/>
  <path style="fill:rgb(100%,100%,100%);stroke-width:2.88494;stroke:rgb(83.137255%,4.705882%,0%)" d="M 34.67952 4.779883 L 76.680093 4.779883 C 79.993322 4.779883 82.680318 7.466041 82.680318 10.780021 L 82.680318 82.779768 C 82.680318 86.093747 79.993322 88.779906 76.680093 88.779906 L 34.67952 88.779906 C 31.366292 88.779906 28.680296 86.093747 28.680296 82.779768 L 28.680296 10.780021 C 28.680296 7.466041 31.366292 4.779883 34.67952 4.779883 Z M 34.67952 4.779883" transform="matrix(3.904802,0,0,4.087797,-28.779928,1.413936)"/>
  <path style="fill:url(#linear1);stroke-width:2.88494;stroke:rgb(83.137255%,4.705882%,0%)" d="M 50.898534 35.186699 C 47.584305 35.186699 44.898309 37.872857 44.898309 41.186837 C 44.898309 41.393244 44.90131 41.593917 44.921318 41.795546 C 45.43951 50.683472 56.898759 59.186296 56.898759 59.186296 C 56.898759 59.186296 68.343002 50.328949 68.875199 41.795546 C 68.895207 41.593917 68.898208 41.393244 68.898208 41.186837 C 68.898208 37.872857 66.212212 35.186699 62.897983 35.186699 C 59.584755 35.186699 56.898759 37.872857 56.898759 41.186837 C 56.898759 37.872857 54.211762 35.186699 50.898534 35.186699 Z M 50.898534 35.186699" transform="matrix(3.904802,0,0,4.087797,-28.779928,1.413936)"/>
  <path style="fill:rgb(100%,100%,100%);stroke-width:2.88494;stroke:rgb(83.137255%,4.705882%,0%)" d="M 34.680398 4.779883 L 76.67997 4.779883 C 79.994199 4.779883 82.680195 7.466041 82.680195 10.780021 L 82.680195 82.779768 C 82.680195 86.093747 79.994199 88.779906 76.67997 88.779906 L 34.680398 88.779906 C 31.366169 88.779906 28.680173 86.093747 28.680173 82.779768 L 28.680173 10.780021 C 28.680173 7.466041 31.366169 4.779883 34.680398 4.779883 Z M 34.680398 4.779883" transform="matrix(3.904802,0,0,4.087797,22.048677,1.413936)"/>
  <path style="fill:url(#linear2);stroke-width:2.88494;stroke:rgb(83.137255%,4.705882%,0%)" d="M 50.898411 35.186699 C 47.584182 35.186699 44.898186 37.872857 44.898186 41.186837 C 44.898186 41.393244 44.901187 41.593917 44.922195 41.795546 C 45.439387 50.683472 56.898636 59.186296 56.898636 59.186296 C 56.898636 59.186296 68.342879 50.328949 68.875076 41.795546 C 68.895084 41.593917 68.898085 41.393244 68.898085 41.186837 C 68.898085 37.872857 66.212089 35.186699 62.89786 35.186699 C 59.584632 35.186699 56.898636 37.872857 56.898636 41.186837 C 56.898636 37.872857 54.211639 35.186699 50.898411 35.186699 Z M 50.898411 35.186699" transform="matrix(3.904802,0,0,4.087797,22.048677,1.413936)"/>
  <path style="fill:rgb(83.137255%,0%,0%)" d="M 162.445312 70.007812 L 162.445312 71.289062 L 152.308594 71.289062 L 152.308594 70.007812 L 155.800781 69.355469 L 166.304688 38.589844 L 170.671875 38.589844 L 181.589844 69.355469 L 185.5 70.007812 L 185.5 71.289062 L 172.464844 71.289062 L 172.464844 70.007812 L 176.601562 69.355469 L 173.546875 59.996094 L 161.410156 59.996094 L 158.308594 69.355469 L 162.445312 70.007812 M 167.386719 42.070312 L 162.097656 57.816406 L 172.832031 57.816406 L 167.386719 42.070312"/>
  <path style="fill:rgb(83.137255%,0%,0%)" d="M 162.070312 79.464844 C 157.757812 79.464844 154.261719 83.125 154.261719 87.640625 C 154.261719 87.925781 154.265625 88.195312 154.292969 88.472656 C 154.964844 100.582031 169.878906 112.167969 169.878906 112.167969 C 169.878906 112.167969 184.777344 100.097656 185.46875 88.472656 C 185.496094 88.195312 185.5 87.925781 185.5 87.640625 C 185.5 83.125 182.003906 79.464844 177.691406 79.464844 C 173.378906 79.464844 169.882812 83.125 169.882812 87.640625 C 169.882812 83.125 166.386719 79.464844 162.070312 79.464844 Z M 162.070312 79.464844"/>
  <path style="fill:rgb(83.137255%,0%,0%)" d="M 98.5625 67.964844 L 98.5625 65.683594 L 102.550781 65.683594 L 102.550781 38.144531 L 98.5625 38.144531 L 98.5625 35.84375 L 110.792969 35.84375 L 110.792969 38.144531 L 106.808594 38.144531 L 106.808594 50.300781 L 120.292969 38.144531 L 116.894531 38.144531 L 116.894531 35.84375 L 127.296875 35.84375 L 127.296875 38.144531 L 123.773438 38.144531 L 110.332031 50.257812 L 125.367188 65.683594 L 128.933594 65.683594 L 128.933594 67.964844 L 121.65625 67.964844 L 106.808594 52.710938 L 106.808594 65.683594 L 110.792969 65.683594 L 110.792969 67.964844 L 98.5625 67.964844"/>
  <path style="fill:rgb(83.137255%,0%,0%)" d="M 107.652344 100.667969 C 103.875 100.667969 100.816406 97.921875 100.816406 94.535156 C 100.816406 94.324219 100.820312 94.121094 100.84375 93.914062 C 101.433594 84.828125 114.484375 76.140625 114.484375 76.140625 C 114.484375 76.140625 127.519531 85.191406 128.125 93.914062 C 128.148438 94.117188 128.152344 94.324219 128.152344 94.535156 C 128.152344 97.921875 125.09375 100.667969 121.320312 100.667969 C 117.542969 100.667969 114.484375 97.921875 114.484375 94.535156 C 114.484375 97.921875 111.425781 100.667969 107.652344 100.667969 Z M 107.652344 100.667969"/>
  <path style="fill:rgb(83.137255%,0%,0%)" d="M 109.875 87.882812 C 109.875 100.144531 102.0625 104.230469 102.0625 104.230469 L 117.683594 104.230469 C 117.683594 104.230469 109.875 100.144531 109.875 87.882812 Z M 109.875 87.882812"/>
  <path style="fill:rgb(83.137255%,0%,0%)" d="M 54.964844 41.839844 L 52.613281 41.839844 L 52.613281 36.117188 C 54.109375 35.300781 55.613281 34.675781 57.125 34.246094 C 58.648438 33.816406 60.136719 33.601562 61.589844 33.601562 C 64.847656 33.601562 67.421875 34.410156 69.308594 36.03125 C 71.195312 37.652344 72.140625 39.851562 72.140625 42.636719 C 72.140625 45.777344 70 49.535156 65.722656 53.910156 C 65.386719 54.238281 65.136719 54.492188 64.96875 54.664062 L 57.0625 62.773438 L 70.128906 62.773438 L 70.128906 58.816406 L 72.582031 58.816406 L 72.582031 66.300781 L 52.382812 66.300781 L 52.382812 63.957031 L 61.886719 54.230469 C 63.984375 52.082031 65.480469 50.109375 66.375 48.316406 C 67.269531 46.507812 67.714844 44.617188 67.714844 42.636719 C 67.714844 40.46875 67.164062 38.777344 66.058594 37.558594 C 64.96875 36.339844 63.457031 35.730469 61.527344 35.730469 C 59.527344 35.730469 57.984375 36.238281 56.894531 37.257812 C 55.804688 38.277344 55.160156 39.804688 54.964844 41.839844"/>
  <path style="fill:rgb(83.137255%,0%,0%)" d="M 79.472656 90.828125 C 79.472656 92.21875 72.855469 98.289062 71.917969 99.269531 C 70.980469 100.25 65.179688 107.179688 63.855469 107.179688 C 62.527344 107.179688 56.730469 100.25 55.792969 99.269531 C 54.855469 98.289062 48.234375 92.21875 48.234375 90.828125 C 48.234375 89.441406 54.855469 83.371094 55.792969 82.386719 C 56.730469 81.40625 62.527344 74.476562 63.855469 74.476562 C 65.179688 74.476562 70.980469 81.40625 71.917969 82.386719 C 72.855469 83.371094 79.472656 89.441406 79.472656 90.828125 Z M 79.472656 90.828125"/>
  <path style="fill:rgb(76.862745%,0%,0%)" d="M 301.605469 315.269531 L 301.605469 313.988281 L 291.46875 313.988281 L 291.46875 315.269531 L 294.964844 315.925781 L 305.46875 346.691406 L 309.835938 346.691406 L 320.753906 315.925781 L 324.660156 315.269531 L 324.660156 313.988281 L 311.628906 313.988281 L 311.628906 315.269531 L 315.765625 315.925781 L 312.707031 325.285156 L 300.570312 325.285156 L 297.46875 315.925781 L 301.605469 315.269531 M 306.546875 343.207031 L 301.261719 327.460938 L 311.996094 327.460938 L 306.546875 343.207031"/>
  <path style="fill:rgb(76.862745%,0%,0%)" d="M 301.230469 305.8125 C 296.917969 305.8125 293.421875 302.152344 293.421875 297.636719 C 293.421875 297.355469 293.425781 297.082031 293.453125 296.808594 C 294.125 284.695312 309.042969 273.109375 309.042969 273.109375 C 309.042969 273.109375 323.9375 285.179688 324.628906 296.808594 C 324.65625 297.082031 324.660156 297.355469 324.660156 297.636719 C 324.660156 302.152344 321.164062 305.8125 316.851562 305.8125 C 312.539062 305.8125 309.039062 302.152344 309.039062 297.636719 C 309.039062 302.152344 305.542969 305.8125 301.230469 305.8125 Z M 301.230469 305.8125"/>
 </g>
</svg>
